assets/icons/spin_button.svg

<svg width="220" height="56" viewBox="0 0 220 56" fill="none" xmlns="http://www.w3.org/2000/svg">
<rect width="220" height="56" rx="28" fill="url(#paint0_linear_6606_2892)"/>
<rect x="1" y="1" width="218" height="54" rx="27" stroke="url(#paint1_linear_6606_2892)" stroke-width="2"/>
<rect x="4.5" y="4.5" width="211" height="47" rx="23.5" fill="url(#paint2_linear_6606_2892)" stroke="#073300"/>
<g style="mix-blend-mode:overlay">
<rect x="15" y="7" width="190" height="28" rx="14" fill="url(#paint3_linear_6606_2892)"/>
</g>
<path d="M99.4283 25.8523C99.3904 25.4356 99.2218 25.1117 98.9226 24.8807C98.6271 24.6458 98.2048 24.5284 97.6555 24.5284C97.2919 24.5284 96.9889 24.5758 96.7464 24.6705C96.504 24.7652 96.3222 24.8958 96.201 25.0625C96.0798 25.2254 96.0173 25.4129 96.0135 25.625C96.0059 25.7992 96.04 25.9527 96.1158 26.0852C96.1953 26.2178 96.3089 26.3352 96.4567 26.4375C96.6082 26.536 96.79 26.6231 97.0021 26.6989C97.2143 26.7746 97.4529 26.8409 97.718 26.8977L98.718 27.125C99.2938 27.25 99.8014 27.4167 100.241 27.625C100.684 27.8333 101.055 28.0814 101.354 28.3693C101.657 28.6572 101.887 28.9886 102.042 29.3636C102.197 29.7386 102.277 30.1591 102.281 30.625C102.277 31.3598 102.091 31.9905 101.724 32.517C101.356 33.0436 100.828 33.447 100.138 33.7273C99.4529 34.0076 98.6252 34.1477 97.6555 34.1477C96.6821 34.1477 95.8336 34.0019 95.1101 33.7102C94.3866 33.4186 93.8241 32.9754 93.4226 32.3807C93.0211 31.786 92.8146 31.0341 92.8033 30.125H95.4964C95.5192 30.5 95.6196 30.8125 95.7976 31.0625C95.9756 31.3125 96.2199 31.5019 96.5305 31.6307C96.8449 31.7595 97.2086 31.8239 97.6214 31.8239C98.0002 31.8239 98.3222 31.7727 98.5874 31.6705C98.8563 31.5682 99.0627 31.4261 99.2067 31.2443C99.3506 31.0625 99.4245 30.8542 99.4283 30.6193C99.4245 30.3996 99.3563 30.2121 99.2237 30.0568C99.0911 29.8977 98.8866 29.7614 98.6101 29.6477C98.3374 29.5303 97.9889 29.4223 97.5646 29.3239L96.3487 29.0398C95.3411 28.8087 94.5476 28.4356 93.968 27.9205C93.3885 27.4015 93.1006 26.7008 93.1044 25.8182C93.1006 25.0985 93.2938 24.4678 93.6839 23.9261C94.0741 23.3845 94.6139 22.9621 95.3033 22.6591C95.9927 22.3561 96.7786 22.2045 97.6612 22.2045C98.5627 22.2045 99.3449 22.358 100.008 22.6648C100.674 22.9678 101.192 23.3939 101.559 23.9432C101.926 24.4924 102.114 25.1288 102.121 25.8523H99.4283ZM103.701 37.2727V25.2727H106.451V26.767H106.536C106.65 26.5019 106.811 26.2462 107.019 26C107.231 25.7538 107.5 25.553 107.826 25.3977C108.156 25.2386 108.549 25.1591 109.008 25.1591C109.614 25.1591 110.18 25.3182 110.707 25.6364C111.237 25.9545 111.665 26.4451 111.991 27.108C112.317 27.7708 112.479 28.6155 112.479 29.642C112.479 30.6307 112.322 31.4583 112.008 32.125C111.697 32.7917 111.277 33.2917 110.746 33.625C110.22 33.9583 109.635 34.125 108.991 34.125C108.551 34.125 108.171 34.053 107.849 33.9091C107.527 33.7652 107.256 33.5758 107.036 33.3409C106.82 33.1061 106.654 32.8542 106.536 32.5852H106.479V37.2727H103.701ZM106.423 29.6364C106.423 30.1061 106.485 30.5152 106.61 30.8636C106.739 31.2121 106.923 31.483 107.161 31.6761C107.404 31.8655 107.693 31.9602 108.031 31.9602C108.371 31.9602 108.661 31.8655 108.9 31.6761C109.138 31.483 109.318 31.2121 109.44 30.8636C109.565 30.5152 109.627 30.1061 109.627 29.6364C109.627 29.1667 109.565 28.7595 109.44 28.4148C109.318 28.0701 109.138 27.803 108.9 27.6136C108.665 27.4242 108.375 27.3295 108.031 27.3295C107.69 27.3295 107.4 27.4223 107.161 27.608C106.923 27.7936 106.739 28.0587 106.61 28.4034C106.485 28.7481 106.423 29.1591 106.423 29.6364ZM113.935 34V25.2727H116.714V34H113.935ZM115.327 24.2557C114.937 24.2557 114.602 24.1269 114.322 23.8693C114.041 23.608 113.901 23.2936 113.901 22.9261C113.901 22.5625 114.041 22.2519 114.322 21.9943C114.602 21.733 114.937 21.6023 115.327 21.6023C115.721 21.6023 116.057 21.733 116.333 21.9943C116.613 22.2519 116.754 22.5625 116.754 22.9261C116.754 23.2936 116.613 23.608 116.333 23.8693C116.057 24.1269 115.721 24.2557 115.327 24.2557ZM121.261 29.0227V34H118.482V25.2727H121.124V26.875H121.221C121.414 26.3409 121.744 25.9223 122.21 25.6193C122.675 25.3125 123.23 25.1591 123.874 25.1591C124.488 25.1591 125.02 25.2973 125.471 25.5739C125.925 25.8466 126.278 26.2292 126.528 26.7216C126.781 27.2102 126.906 27.7822 126.903 28.4375V34H124.124V28.983C124.128 28.4981 124.005 28.1193 123.755 27.8466C123.509 27.5739 123.166 27.4375 122.727 27.4375C122.435 27.4375 122.177 27.5019 121.954 27.6307C121.734 27.7557 121.564 27.9356 121.442 28.1705C121.325 28.4053 121.264 28.6894 121.261 29.0227Z" fill="white"/>
<defs>
<linearGradient id="paint0_linear_6606_2892" x1="110" y1="0" x2="110" y2="56" gradientUnits="userSpaceOnUse">
<stop stop-color="#FFEB3C"/>
<stop offset="0.135" stop-color="#FF730E"/>
<stop offset="0.425" stop-color="#B3330A"/>
<stop offset="0.66" stop-color="#FFE600"/>
<stop offset="1" stop-color="#FF730E"/>
</linearGradient>
<linearGradient id="paint1_linear_6606_2892" x1="110" y1="0" x2="110" y2="56" gradientUnits="userSpaceOnUse">
<stop stop-color="#FF730E"/>
<stop offset="0.295" stop-color="#C03900"/>
<stop offset="0.525" stop-color="#DBFF00"/>
<stop offset="0.97" stop-color="#CE7C00"/>
</linearGradient>
<linearGradient id="paint2_linear_6606_2892" x1="110" y1="4" x2="110" y2="52" gradientUnits="userSpaceOnUse">
<stop stop-color="#BAFF27"/>
<stop offset="0.395" stop-color="#3FB715"/>
<stop offset="0.78" stop-color="#0E7206"/>
<stop offset="1" stop-color="#468A02"/>
</linearGradient>
<linearGradient id="paint3_linear_6606_2892" x1="110" y1="7" x2="110" y2="35" gradientUnits="userSpaceOnUse">
<stop stop-color="white"/>
<stop offset="1" stop-color="white" stop-opacity="0"/>
</linearGradient>
</defs>
</svg>

<svg xmlns="http://www.w3.org/2000/svg" width="220" height="56" fill="none" xmlns:v="https://vecta.io/nano"><rect width="220" height="56" rx="28" fill="url(#A)"/><rect x="1" y="1" width="218" height="54" rx="27" stroke="url(#B)" stroke-width="2"/><rect x="4.5" y="4.5" width="211" height="47" rx="23.5" fill="url(#C)" stroke="#073300"/><rect x="15" y="7" width="190" height="28" rx="14" fill="url(#D)" style="mix-blend-mode:overlay"/><path d="M99.428 25.852c-.038-.417-.206-.741-.506-.972s-.718-.352-1.267-.352c-.364 0-.667.047-.909.142s-.424.225-.545.392-.184.35-.187.563c-.008.174.027.328.102.46s.193.25.341.352.333.186.545.261a5.68 5.68 0 0 0 .716.199l1 .227c.576.125 1.083.292 1.523.5s.814.456 1.113.744.533.619.688.994a3.35 3.35 0 0 1 .239 1.261c-.004.735-.19 1.366-.557 1.892s-.896.93-1.586 1.21-1.513.42-2.483.42-1.822-.146-2.545-.437-1.286-.735-1.687-1.33-.608-1.347-.619-2.256h2.693c.023.375.123.688.301.938a1.65 1.65 0 0 0 .733.568c.314.129.678.193 1.091.193.379 0 .701-.051.966-.153s.475-.244.619-.426.218-.39.222-.625a.86.86 0 0 0-.205-.562c-.133-.159-.337-.295-.614-.409s-.621-.225-1.046-.324l-1.216-.284c-1.008-.231-1.801-.604-2.381-1.119s-.867-1.22-.864-2.102c-.004-.72.189-1.35.579-1.892s.93-.964 1.619-1.267 1.475-.455 2.358-.455c.902 0 1.684.154 2.347.46s1.184.729 1.551 1.278.555 1.186.562 1.909h-2.693zm4.273 11.42v-12h2.75v1.494h.085a3.07 3.07 0 0 1 .483-.767 2.42 2.42 0 0 1 .807-.602c.33-.159.723-.239 1.182-.239a3.23 3.23 0 0 1 1.699.477c.53.318.958.809 1.284 1.472s.488 1.508.488 2.534c0 .989-.157 1.816-.471 2.483s-.731 1.167-1.262 1.5a3.21 3.21 0 0 1-1.755.5c-.44 0-.82-.072-1.142-.216a2.49 2.49 0 0 1-.813-.568 2.74 2.74 0 0 1-.5-.756h-.057v4.688h-2.778zm2.722-7.636c0 .47.062.879.187 1.227s.313.619.551.813a1.37 1.37 0 0 0 .87.284c.34 0 .63-.095.869-.284s.418-.464.54-.812.187-.758.187-1.227-.062-.877-.187-1.222-.302-.612-.54-.801-.525-.284-.869-.284-.631.093-.87.279-.422.451-.551.795-.187.756-.187 1.233zM113.935 34v-8.727h2.779V34h-2.779zm1.392-9.744c-.39 0-.725-.129-1.005-.386a1.24 1.24 0 0 1-.421-.943c0-.364.14-.674.421-.932a1.42 1.42 0 0 1 1.005-.392 1.41 1.41 0 0 1 1.006.392 1.22 1.22 0 0 1 .421.932c0 .367-.141.682-.421.943a1.42 1.42 0 0 1-1.006.386zm5.934 4.767V34h-2.779v-8.727h2.642v1.602h.097a2.45 2.45 0 0 1 .989-1.256c.465-.307 1.02-.46 1.664-.46.614 0 1.146.138 1.597.415a2.77 2.77 0 0 1 1.057 1.148c.253.489.378 1.061.375 1.716V34h-2.779v-5.017c.004-.485-.119-.864-.369-1.136s-.589-.409-1.028-.409c-.292 0-.55.064-.773.193s-.39.305-.512.54c-.117.235-.178.519-.181.852z" fill="#fff"/><defs><linearGradient id="A" x1="110" y1="0" x2="110" y2="56" gradientUnits="userSpaceOnUse"><stop stop-color="#ffeb3c"/><stop offset=".135" stop-color="#ff730e"/><stop offset=".425" stop-color="#b3330a"/><stop offset=".66" stop-color="#ffe600"/><stop offset="1" stop-color="#ff730e"/></linearGradient><linearGradient id="B" x1="110" y1="0" x2="110" y2="56" gradientUnits="userSpaceOnUse"><stop stop-color="#ff730e"/><stop offset=".295" stop-color="#c03900"/><stop offset=".525" stop-color="#dbff00"/><stop offset=".97" stop-color="#ce7c00"/></linearGradient><linearGradient id="C" x1="110" y1="4" x2="110" y2="52" gradientUnits="userSpaceOnUse"><stop stop-color="#baff27"/><stop offset=".395" stop-color="#3fb715"/><stop offset=".78" stop-color="#0e7206"/><stop offset="1" stop-color="#468a02"/></linearGradient><linearGradient id="D" x1="110" y1="7" x2="110" y2="35" gradientUnits="userSpaceOnUse"><stop stop-color="#fff"/><stop offset="1" stop-color="#fff" stop-opacity="0"/></linearGradient></defs></svg>
